images/logo.svg

<svg height="145" viewBox="0 0 89 145" width="89" xmlns="http://www.w3.org/2000/svg"><g fill="none" fill-rule="evenodd"><path d="m18.2066301 63.2379452c0-2.9317808-2.3853698-5.3166575-5.3161643-5.3166575-2.93227402 0-5.31715073 2.3848767-5.31715073 5.3166575 0 2.9312877 2.38487671 5.3161644 5.31715073 5.3161644 2.9307945 0 5.3161643-2.3848767 5.3161643-5.3161644m48.3403069.0128561c-.0000329-.0042815-.0000493-.0085669-.0000493-.0128561 0-.0042916.0000164-.0085793.0000493-.0128631v-6.9462821c0-.9069041.7357808-1.6421918 1.6426849-1.6421918h13.9137534c.9069042 0 1.642685.7352877 1.642685 1.6421918 0 .9073973-.7357808 1.6426849-1.642685 1.6426849h-12.2710685v3.6737754h8.9856494c.9069041 0 1.6426849.7352876 1.6426849 1.6426849 0 .9069041-.7357808 1.6421918-1.6426849 1.6421918h-8.9856494v3.6741698h12.2710685c.9069042 0 1.642685.7347946 1.642685 1.6421918 0 .9073973-.7357808 1.6421918-1.642685 1.6421918h-13.9137534c-.9069041 0-1.6426849-.7347945-1.6426849-1.6421918zm-45.0559233-.0128561c0 4.7426301-3.8579178 8.6010411-8.6005479 8.6010411-4.74312333 0-8.60202744-3.858411-8.60202744-8.6010411s3.85890411-8.6010411 8.60202744-8.6010411c4.7426301 0 8.6005479 3.858411 8.6005479 8.6010411zm15.5333589 8.6012384c-.9069041 0-1.6421918-.7352877-1.6421918-1.6421918v-13.9181918c0-.6637808.3999452-1.2629589 1.0139178-1.5174247.6134795-.2539726 1.3201644-.1134246 1.7896439.3560548l11.114137 11.1136439v-9.952274c0-.9073973.7352876-1.6421918 1.6421917-1.6421918.9073973 0 1.642685.7347945 1.642685 1.6421918v13.9176986c0 .664274-.4004384 1.2629589-1.014411 1.5174247-.6144657.2549589-1.3196712.1139178-1.7896438-.3560548l-11.1136439-11.114137v9.9532603c0 .9069041-.7352876 1.6421918-1.6426849 1.6421918z" fill="#e0be41"/><path d="m31.0950247 47.6762301v-11.2428493h24.1343013c.9073973 0 1.6431781.7347945 1.6431781 1.6421918v9.602137c0 .9073972-.7357808 1.6426849-1.6431781 1.6426849h-22.490137c-.9078904 0-1.6441643-.736274-1.6441643-1.6441644zm-13.9093644-30.4905698c8.2183561 4.7450959 11.0342465 15.2536438 6.2896438 23.4724931-4.4358904 7.6827945-13.90931506 10.6441644-21.83917807 7.1206028-.8970411-.3979726-1.25654795-1.4838904-.76635617-2.3330959zm45.0399945-14.70304112 25.6186849 44.37123292c.6332055 1.0962739-.1578082 2.4667397-1.423726 2.4667397h-22.5507945c-.9078904 0-1.6441644-.7367671-1.6441644-1.6441644z" fill="#e0be41"/><path d="m42.3378247.06815342c.9078904 0 1.6441643.73627398 1.6441643 1.64416439v34.72126029h-12.8870137v-34.72126029c0-.90789041.736274-1.64416439 1.6441644-1.64416439zm-33.74378634 31.99823018c-8.21835617-4.7450959-11.03424658-15.2536439-6.28915069-23.47200004 4.43589041-7.68328767 13.90931503-10.64465753 21.83917813-7.12109589.897041.39846575 1.2565479 1.48389041.765863 2.33358904zm53.63161644 14.8397917v-45.19380818c0-.90789041.736274-1.64416438 1.6441644-1.64416438h22.5507945c1.2659178 0 2.0569315 1.37046575 1.423726 2.46673973z" fill="#3a3e41"/><g transform="translate(0 73)"><path d="m18.2066301 63.2379452c0-2.9317808-2.3853698-5.3166575-5.3161643-5.3166575-2.93227402 0-5.31715073 2.3848767-5.31715073 5.3166575 0 2.9312877 2.38487671 5.3161644 5.31715073 5.3161644 2.9307945 0 5.3161643-2.3848767 5.3161643-5.3161644m48.3403069.0128561c-.0000329-.0042815-.0000493-.0085669-.0000493-.0128561 0-.0042916.0000164-.0085793.0000493-.0128631v-6.9462821c0-.9069041.7357808-1.6421918 1.6426849-1.6421918h13.9137534c.9069042 0 1.642685.7352877 1.642685 1.6421918 0 .9073973-.7357808 1.6426849-1.642685 1.6426849h-12.2710685v3.6737754h8.9856494c.9069041 0 1.6426849.7352876 1.6426849 1.6426849 0 .9069041-.7357808 1.6421918-1.6426849 1.6421918h-8.9856494v3.6741698h12.2710685c.9069042 0 1.642685.7347946 1.642685 1.6421918 0 .9073973-.7357808 1.6421918-1.642685 1.6421918h-13.9137534c-.9069041 0-1.6426849-.7347945-1.6426849-1.6421918zm-45.0559233-.0128561c0 4.7426301-3.8579178 8.6010411-8.6005479 8.6010411-4.74312333 0-8.60202744-3.858411-8.60202744-8.6010411s3.85890411-8.6010411 8.60202744-8.6010411c4.7426301 0 8.6005479 3.858411 8.6005479 8.6010411zm15.5333589 8.6012384c-.9069041 0-1.6421918-.7352877-1.6421918-1.6421918v-13.9181918c0-.6637808.3999452-1.2629589 1.0139178-1.5174247.6134795-.2539726 1.3201644-.1134246 1.7896439.3560548l11.114137 11.1136439v-9.952274c0-.9073973.7352876-1.6421918 1.6421917-1.6421918.9073973 0 1.642685.7347945 1.642685 1.6421918v13.9176986c0 .664274-.4004384 1.2629589-1.014411 1.5174247-.6144657.2549589-1.3196712.1139178-1.7896438-.3560548l-11.1136439-11.114137v9.9532603c0 .9069041-.7352876 1.6421918-1.6426849 1.6421918z" fill="#e0be41"/><path d="m31.0950247 47.6762301v-11.2428493h24.1343013c.9073973 0 1.6431781.7347945 1.6431781 1.6421918v9.602137c0 .9073972-.7357808 1.6426849-1.6431781 1.6426849h-22.490137c-.9078904 0-1.6441643-.736274-1.6441643-1.6441644zm-13.9093644-30.4905698c8.2183561 4.7450959 11.0342465 15.2536438 6.2896438 23.4724931-4.4358904 7.6827945-13.90931506 10.6441644-21.83917807 7.1206028-.8970411-.3979726-1.25654795-1.4838904-.76635617-2.3330959zm45.0399945-14.70304112 25.6186849 44.37123292c.6332055 1.0962739-.1578082 2.4667397-1.423726 2.4667397h-22.5507945c-.9078904 0-1.6441644-.7367671-1.6441644-1.6441644z" fill="#e0be41"/><path d="m42.3378247.06815342c.9078904 0 1.6441643.73627398 1.6441643 1.64416439v34.72126029h-12.8870137v-34.72126029c0-.90789041.736274-1.64416439 1.6441644-1.64416439zm-33.74378634 31.99823018c-8.21835617-4.7450959-11.03424658-15.2536439-6.28915069-23.47200004 4.43589041-7.68328767 13.90931503-10.64465753 21.83917813-7.12109589.897041.39846575 1.2565479 1.48389041.765863 2.33358904zm53.63161644 14.8397917v-45.19380818c0-.90789041.736274-1.64416438 1.6441644-1.64416438h22.5507945c1.2659178 0 2.0569315 1.37046575 1.423726 2.46673973z" fill="#3a3e41"/><path d="m18.2066301 63.2379452c0-2.9317808-2.3853698-5.3166575-5.3161643-5.3166575-2.93227402 0-5.31715073 2.3848767-5.31715073 5.3166575 0 2.9312877 2.38487671 5.3161644 5.31715073 5.3161644 2.9307945 0 5.3161643-2.3848767 5.3161643-5.3161644m56.8434721-38.5435479 12.7942375 22.1594548c.6332055 1.0962739-.1578082 2.4667397-1.423726 2.4667397h-22.5507945c-.9078904 0-1.6441644-.7367671-1.6441644-1.6441644v-45.19380822-.77025206c0-.90789041.736274-1.64416438 1.6441644-1.64416438h22.5507945c1.2659178 0 2.0569315 1.37046575 1.423726 2.46673973zm-31.0681132 11.7391808h-12.8870137v-34.72126029c0-.90789041.736274-1.64416439 1.6441644-1.64416439h9.598685c.9078904 0 1.6441643.73627398 1.6441643 1.64416439v34.72106299h11.247337c.9073973 0 1.6431781.7347945 1.6431781 1.6421918v9.602137c0 .9073972-.7357808 1.6426849-1.6431781 1.6426849h-22.490137c-.9078904 0-1.6441643-.736274-1.6441643-1.6441644v-11.2428493h12.8869643zm22.564948 26.8172232c-.0000329-.0042815-.0000493-.0085669-.0000493-.0128561 0-.0042916.0000164-.0085793.0000493-.0128631v-6.9462821c0-.9069041.7357808-1.6421918 1.6426849-1.6421918h13.9137534c.9069042 0 1.642685.7352877 1.642685 1.6421918 0 .9073973-.7357808 1.6426849-1.642685 1.6426849h-12.2710685v3.6737754h8.9856494c.9069041 0 1.6426849.7352876 1.6426849 1.6426849 0 .9069041-.7357808 1.6421918-1.6426849 1.6421918h-8.9856494v3.6741698h12.2710685c.9069042 0 1.642685.7347946 1.642685 1.6421918 0 .9073973-.7357808 1.6421918-1.642685 1.6421918h-13.9137534c-.9069041 0-1.6426849-.7347945-1.6426849-1.6421918zm-45.0559233-.0128561c0 4.7426301-3.8579178 8.6010411-8.6005479 8.6010411-4.74312333 0-8.60202744-3.858411-8.60202744-8.6010411s3.85890411-8.6010411 8.60202744-8.6010411c4.7426301 0 8.6005479 3.858411 8.6005479 8.6010411zm15.5333589 8.6012384c-.9069041 0-1.6421918-.7352877-1.6421918-1.6421918v-13.9181918c0-.6637808.3999452-1.2629589 1.0139178-1.5174247.6134795-.2539726 1.3201644-.1134246 1.7896439.3560548l11.114137 11.1136439v-9.952274c0-.9073973.7352876-1.6421918 1.6421917-1.6421918.9073973 0 1.642685.7347945 1.642685 1.6421918v13.9176986c0 .664274-.4004384 1.2629589-1.014411 1.5174247-.6144657.2549589-1.3196712.1139178-1.7896438-.3560548l-11.1136439-11.114137v9.9532603c0 .9069041-.7352876 1.6421918-1.6426849 1.6421918zm-19.8387123-54.6535233c8.2183561 4.7450959 11.0342465 15.2536438 6.2896438 23.4724931-4.4358904 7.6827945-13.90931506 10.6441644-21.83917807 7.1206028-.8970411-.3979726-1.25654795-1.4838904-.76635617-2.3330959zm-8.59162194 14.8807233c-8.21835617-4.7450959-11.03424658-15.2536439-6.28915069-23.47200004 4.43589041-7.68328767 13.90931503-10.64465753 21.83917813-7.12109589.897041.39846575 1.2565479 1.48389041.765863 2.33358904z" fill="#000" fill-opacity=".1"/></g></g></svg>

<?xml version="1.0" encoding="UTF-8"?>
<svg width="89px" height="145px" viewBox="0 0 89 145" version="1.1" xmlns="http://www.w3.org/2000/svg" xmlns:xlink="http://www.w3.org/1999/xlink">
    <!-- Generator: Sketch 50.2 (55047) - http://www.bohemiancoding.com/sketch -->
    <title>Logo Dark</title>
    <desc>Created with Sketch.</desc>
    <defs></defs>
    <g id="Logo-Dark" stroke="none" stroke-width="1" fill="none" fill-rule="evenodd">
        <g id="Group">
            <path d="M18.2066301,63.2379452 C18.2066301,60.3061644 15.8212603,57.9212877 12.8904658,57.9212877 C9.95819178,57.9212877 7.57331507,60.3061644 7.57331507,63.2379452 C7.57331507,66.1692329 9.95819178,68.5541096 12.8904658,68.5541096 C15.8212603,68.5541096 18.2066301,66.1692329 18.2066301,63.2379452 M66.546937,63.2508013 C66.5469041,63.2465198 66.5468877,63.2422344 66.5468877,63.2379452 C66.5468877,63.2336536 66.5469041,63.2293659 66.546937,63.2250821 L66.546937,56.2788 C66.546937,55.3718959 67.2827178,54.6366082 68.1896219,54.6366082 L82.1033753,54.6366082 C83.0102795,54.6366082 83.7460603,55.3718959 83.7460603,56.2788 C83.7460603,57.1861973 83.0102795,57.9214849 82.1033753,57.9214849 L69.8323068,57.9214849 L69.8323068,61.5952603 L78.8179562,61.5952603 C79.7248603,61.5952603 80.4606411,62.3305479 80.4606411,63.2379452 C80.4606411,64.1448493 79.7248603,64.880137 78.8179562,64.880137 L69.8323068,64.880137 L69.8323068,68.5543068 L82.1033753,68.5543068 C83.0102795,68.5543068 83.7460603,69.2891014 83.7460603,70.1964986 C83.7460603,71.1038959 83.0102795,71.8386904 82.1033753,71.8386904 L68.1896219,71.8386904 C67.2827178,71.8386904 66.546937,71.1038959 66.546937,70.1964986 L66.546937,63.2508013 Z M21.4910137,63.2379452 C21.4910137,67.9805753 17.6330959,71.8389863 12.8904658,71.8389863 C8.14734247,71.8389863 4.28843836,67.9805753 4.28843836,63.2379452 C4.28843836,58.4953151 8.14734247,54.6369041 12.8904658,54.6369041 C17.6330959,54.6369041 21.4910137,58.4953151 21.4910137,63.2379452 Z M37.0243726,71.8391836 C36.1174685,71.8391836 35.3821808,71.1038959 35.3821808,70.1969918 L35.3821808,56.2788 C35.3821808,55.6150192 35.782126,55.0158411 36.3960986,54.7613753 C37.0095781,54.5074027 37.716263,54.6479507 38.1857425,55.1174301 L49.2998795,66.231074 L49.2998795,56.2788 C49.2998795,55.3714027 50.0351671,54.6366082 50.9420712,54.6366082 C51.8494685,54.6366082 52.5847562,55.3714027 52.5847562,56.2788 L52.5847562,70.1964986 C52.5847562,70.8607726 52.1843178,71.4594575 51.5703452,71.7139233 C50.9558795,71.9688822 50.250674,71.8278411 49.7807014,71.3578685 L38.6670575,60.2437315 L38.6670575,70.1969918 C38.6670575,71.1038959 37.9317699,71.8391836 37.0243726,71.8391836 Z" id="Combined-Shape" fill="#E0BE41"></path>
            <path d="M31.0950247,47.6762301 L31.0950247,36.4333808 L55.229326,36.4333808 C56.1367233,36.4333808 56.8725041,37.1681753 56.8725041,38.0755726 L56.8725041,47.6777096 C56.8725041,48.5851068 56.1367233,49.3203945 55.229326,49.3203945 L32.739189,49.3203945 C31.8312986,49.3203945 31.0950247,48.5841205 31.0950247,47.6762301 Z M17.1856603,17.1856603 C25.4040164,21.9307562 28.2199068,32.4393041 23.4753041,40.6581534 C19.0394137,48.3409479 9.56598904,51.3023178 1.63612603,47.7787562 C0.739084932,47.3807836 0.379578082,46.2948658 0.869769863,45.4456603 L17.1856603,17.1856603 Z M62.2256548,2.48261918 L87.8443397,46.8538521 C88.4775452,47.950126 87.6865315,49.3205918 86.4206137,49.3205918 L63.8698192,49.3205918 C62.9619288,49.3205918 62.2256548,48.5838247 62.2256548,47.6764274 L62.2256548,2.48261918 Z" id="Combined-Shape" fill="#E0BE41"></path>
            <path d="M42.3378247,0.0681534247 C43.2457151,0.0681534247 43.981989,0.804427397 43.981989,1.71231781 L43.981989,36.4335781 L31.0949753,36.4335781 L31.0949753,1.71231781 C31.0949753,0.804427397 31.8312493,0.0681534247 32.7391397,0.0681534247 L42.3378247,0.0681534247 Z M8.59403836,32.0663836 C0.375682192,27.3212877 -2.44020822,16.8127397 2.30488767,8.59438356 C6.74077808,0.91109589 16.2142027,-2.05027397 24.1440658,1.47328767 C25.0411068,1.87175342 25.4006137,2.95717808 24.9099288,3.80687671 L8.59403836,32.0663836 Z M62.2256548,46.9061753 L62.2256548,1.71236712 C62.2256548,0.804476712 62.9619288,0.0682027397 63.8698192,0.0682027397 L86.4206137,0.0682027397 C87.6865315,0.0682027397 88.4775452,1.43866849 87.8443397,2.53494247 L62.2256548,46.9061753 Z" id="Combined-Shape" fill="#3A3E41"></path>
        </g>
        <g id="Group-2" transform="translate(0.000000, 73.000000)">
            <g id="Group-Copy">
                <path d="M18.2066301,63.2379452 C18.2066301,60.3061644 15.8212603,57.9212877 12.8904658,57.9212877 C9.95819178,57.9212877 7.57331507,60.3061644 7.57331507,63.2379452 C7.57331507,66.1692329 9.95819178,68.5541096 12.8904658,68.5541096 C15.8212603,68.5541096 18.2066301,66.1692329 18.2066301,63.2379452 M66.546937,63.2508013 C66.5469041,63.2465198 66.5468877,63.2422344 66.5468877,63.2379452 C66.5468877,63.2336536 66.5469041,63.2293659 66.546937,63.2250821 L66.546937,56.2788 C66.546937,55.3718959 67.2827178,54.6366082 68.1896219,54.6366082 L82.1033753,54.6366082 C83.0102795,54.6366082 83.7460603,55.3718959 83.7460603,56.2788 C83.7460603,57.1861973 83.0102795,57.9214849 82.1033753,57.9214849 L69.8323068,57.9214849 L69.8323068,61.5952603 L78.8179562,61.5952603 C79.7248603,61.5952603 80.4606411,62.3305479 80.4606411,63.2379452 C80.4606411,64.1448493 79.7248603,64.880137 78.8179562,64.880137 L69.8323068,64.880137 L69.8323068,68.5543068 L82.1033753,68.5543068 C83.0102795,68.5543068 83.7460603,69.2891014 83.7460603,70.1964986 C83.7460603,71.1038959 83.0102795,71.8386904 82.1033753,71.8386904 L68.1896219,71.8386904 C67.2827178,71.8386904 66.546937,71.1038959 66.546937,70.1964986 L66.546937,63.2508013 Z M21.4910137,63.2379452 C21.4910137,67.9805753 17.6330959,71.8389863 12.8904658,71.8389863 C8.14734247,71.8389863 4.28843836,67.9805753 4.28843836,63.2379452 C4.28843836,58.4953151 8.14734247,54.6369041 12.8904658,54.6369041 C17.6330959,54.6369041 21.4910137,58.4953151 21.4910137,63.2379452 Z M37.0243726,71.8391836 C36.1174685,71.8391836 35.3821808,71.1038959 35.3821808,70.1969918 L35.3821808,56.2788 C35.3821808,55.6150192 35.782126,55.0158411 36.3960986,54.7613753 C37.0095781,54.5074027 37.716263,54.6479507 38.1857425,55.1174301 L49.2998795,66.231074 L49.2998795,56.2788 C49.2998795,55.3714027 50.0351671,54.6366082 50.9420712,54.6366082 C51.8494685,54.6366082 52.5847562,55.3714027 52.5847562,56.2788 L52.5847562,70.1964986 C52.5847562,70.8607726 52.1843178,71.4594575 51.5703452,71.7139233 C50.9558795,71.9688822 50.250674,71.8278411 49.7807014,71.3578685 L38.6670575,60.2437315 L38.6670575,70.1969918 C38.6670575,71.1038959 37.9317699,71.8391836 37.0243726,71.8391836 Z" id="Combined-Shape" fill="#E0BE41"></path>
                <path d="M31.0950247,47.6762301 L31.0950247,36.4333808 L55.229326,36.4333808 C56.1367233,36.4333808 56.8725041,37.1681753 56.8725041,38.0755726 L56.8725041,47.6777096 C56.8725041,48.5851068 56.1367233,49.3203945 55.229326,49.3203945 L32.739189,49.3203945 C31.8312986,49.3203945 31.0950247,48.5841205 31.0950247,47.6762301 Z M17.1856603,17.1856603 C25.4040164,21.9307562 28.2199068,32.4393041 23.4753041,40.6581534 C19.0394137,48.3409479 9.56598904,51.3023178 1.63612603,47.7787562 C0.739084932,47.3807836 0.379578082,46.2948658 0.869769863,45.4456603 L17.1856603,17.1856603 Z M62.2256548,2.48261918 L87.8443397,46.8538521 C88.4775452,47.950126 87.6865315,49.3205918 86.4206137,49.3205918 L63.8698192,49.3205918 C62.9619288,49.3205918 62.2256548,48.5838247 62.2256548,47.6764274 L62.2256548,2.48261918 Z" id="Combined-Shape" fill="#E0BE41"></path>
                <path d="M42.3378247,0.0681534247 C43.2457151,0.0681534247 43.981989,0.804427397 43.981989,1.71231781 L43.981989,36.4335781 L31.0949753,36.4335781 L31.0949753,1.71231781 C31.0949753,0.804427397 31.8312493,0.0681534247 32.7391397,0.0681534247 L42.3378247,0.0681534247 Z M8.59403836,32.0663836 C0.375682192,27.3212877 -2.44020822,16.8127397 2.30488767,8.59438356 C6.74077808,0.91109589 16.2142027,-2.05027397 24.1440658,1.47328767 C25.0411068,1.87175342 25.4006137,2.95717808 24.9099288,3.80687671 L8.59403836,32.0663836 Z M62.2256548,46.9061753 L62.2256548,1.71236712 C62.2256548,0.804476712 62.9619288,0.0682027397 63.8698192,0.0682027397 L86.4206137,0.0682027397 C87.6865315,0.0682027397 88.4775452,1.43866849 87.8443397,2.53494247 L62.2256548,46.9061753 Z" id="Combined-Shape" fill="#3A3E41"></path>
            </g>
            <path d="M18.2066301,63.2379452 C18.2066301,60.3061644 15.8212603,57.9212877 12.8904658,57.9212877 C9.95819178,57.9212877 7.57331507,60.3061644 7.57331507,63.2379452 C7.57331507,66.1692329 9.95819178,68.5541096 12.8904658,68.5541096 C15.8212603,68.5541096 18.2066301,66.1692329 18.2066301,63.2379452 M75.0501022,24.6943973 L87.8443397,46.8538521 C88.4775452,47.950126 87.6865315,49.3205918 86.4206137,49.3205918 L63.8698192,49.3205918 C62.9619288,49.3205918 62.2256548,48.5838247 62.2256548,47.6764274 L62.2256548,2.48261918 L62.2256548,1.71236712 C62.2256548,0.804476712 62.9619288,0.0682027397 63.8698192,0.0682027397 L86.4206137,0.0682027397 C87.6865315,0.0682027397 88.4775452,1.43866849 87.8443397,2.53494247 L75.0501022,24.6943973 Z M43.981989,36.4335781 L31.0949753,36.4335781 L31.0949753,1.71231781 C31.0949753,0.804427397 31.8312493,0.0681534247 32.7391397,0.0681534247 L42.3378247,0.0681534247 C43.2457151,0.0681534247 43.981989,0.804427397 43.981989,1.71231781 L43.981989,36.4333808 L55.229326,36.4333808 C56.1367233,36.4333808 56.8725041,37.1681753 56.8725041,38.0755726 L56.8725041,47.6777096 C56.8725041,48.5851068 56.1367233,49.3203945 55.229326,49.3203945 L32.739189,49.3203945 C31.8312986,49.3203945 31.0950247,48.5841205 31.0950247,47.6762301 L31.0950247,36.4333808 L43.981989,36.4333808 Z M66.546937,63.2508013 C66.5469041,63.2465198 66.5468877,63.2422344 66.5468877,63.2379452 C66.5468877,63.2336536 66.5469041,63.2293659 66.546937,63.2250821 L66.546937,56.2788 C66.546937,55.3718959 67.2827178,54.6366082 68.1896219,54.6366082 L82.1033753,54.6366082 C83.0102795,54.6366082 83.7460603,55.3718959 83.7460603,56.2788 C83.7460603,57.1861973 83.0102795,57.9214849 82.1033753,57.9214849 L69.8323068,57.9214849 L69.8323068,61.5952603 L78.8179562,61.5952603 C79.7248603,61.5952603 80.4606411,62.3305479 80.4606411,63.2379452 C80.4606411,64.1448493 79.7248603,64.880137 78.8179562,64.880137 L69.8323068,64.880137 L69.8323068,68.5543068 L82.1033753,68.5543068 C83.0102795,68.5543068 83.7460603,69.2891014 83.7460603,70.1964986 C83.7460603,71.1038959 83.0102795,71.8386904 82.1033753,71.8386904 L68.1896219,71.8386904 C67.2827178,71.8386904 66.546937,71.1038959 66.546937,70.1964986 L66.546937,63.2508013 Z M21.4910137,63.2379452 C21.4910137,67.9805753 17.6330959,71.8389863 12.8904658,71.8389863 C8.14734247,71.8389863 4.28843836,67.9805753 4.28843836,63.2379452 C4.28843836,58.4953151 8.14734247,54.6369041 12.8904658,54.6369041 C17.6330959,54.6369041 21.4910137,58.4953151 21.4910137,63.2379452 Z M37.0243726,71.8391836 C36.1174685,71.8391836 35.3821808,71.1038959 35.3821808,70.1969918 L35.3821808,56.2788 C35.3821808,55.6150192 35.782126,55.0158411 36.3960986,54.7613753 C37.0095781,54.5074027 37.716263,54.6479507 38.1857425,55.1174301 L49.2998795,66.231074 L49.2998795,56.2788 C49.2998795,55.3714027 50.0351671,54.6366082 50.9420712,54.6366082 C51.8494685,54.6366082 52.5847562,55.3714027 52.5847562,56.2788 L52.5847562,70.1964986 C52.5847562,70.8607726 52.1843178,71.4594575 51.5703452,71.7139233 C50.9558795,71.9688822 50.250674,71.8278411 49.7807014,71.3578685 L38.6670575,60.2437315 L38.6670575,70.1969918 C38.6670575,71.1038959 37.9317699,71.8391836 37.0243726,71.8391836 Z M17.1856603,17.1856603 C25.4040164,21.9307562 28.2199068,32.4393041 23.4753041,40.6581534 C19.0394137,48.3409479 9.56598904,51.3023178 1.63612603,47.7787562 C0.739084932,47.3807836 0.379578082,46.2948658 0.869769863,45.4456603 L17.1856603,17.1856603 Z M8.59403836,32.0663836 C0.375682192,27.3212877 -2.44020822,16.8127397 2.30488767,8.59438356 C6.74077808,0.91109589 16.2142027,-2.05027397 24.1440658,1.47328767 C25.0411068,1.87175342 25.4006137,2.95717808 24.9099288,3.80687671 L8.59403836,32.0663836 Z" id="Combined-Shape" fill-opacity="0.1" fill="#000000"></path>
        </g>
    </g>
</svg>
